!!!OTL: Gebet.
!!!OTL-incipit: VATER ICH RUFE DICH
!!!COM: Himmel
!!!ARE: Europa, Mitteleuropa, Deutschland
!!!SCT: F0678
!!!TXL: @@DE
!!!YEM: Copyright 1995, estate of Helmut Schaffrath.
**kern	**text
*ICvox	*
*M4/4	*
*met(c)	*
*k[b-]	*
*F:	*
=1	=1
!LO:TX:a:t=Ernst und langsam.	!
{4a	1._Va-
8a	-ter,
8a	ich
4.cc/	ru-
8cc/	-fe
=2	=2
2.f	dich!
4r}	.
=3	=3
{4a	Brül-
8.a	-lend
16a	um-
4a	-wölkt
8.a	mich
16a	der
=4	=4
4a	Dampf
8.bn/	der
16cc#/	Ge-
4dd/^^	-ſchüt-
8d	-ʒe,
8r}	.
=5	=5
{4cc/	ſprü-
8.cc/	-hend
16cc/	um-
4cc/	-ʒuk-
8.cc/	-ken
16cc/	mich
=6	=6
4cc/	raſ-
8.dd/	-ſeln-
16ee/	-de
4ff/^^	Bli-
8f}	-tʒe,
{8f	.
=7	=7
4a	Len-
8.a	-ker
16a	der
4b-/	Schlach-
8b-/	-ten,
8b-/	ich
=8	=8
4.bn/	ru-
8bn/	-fe
4cc/	dich!
4r}	.
=9	=9
{4ff/	Va-
8a	-ter,
8b-/	du
4.cc/	füh-
8e	-re
=10	=10
2f	mich!
2r}	.
==	==
!!!AGN: Soldaten -, Kriegs - Lied; religioes, Gebet
!!!ONB: ESAC (Essen Associative Code) Database: FINK
!!!AMT: simple quadruple
!!!AIN: vox
!!!EED: Helmut Schaffrath
!!!EEV: 1.0
!!!GTL: Soldaten- und Jaegerlieder
!!Text: Th. Koerner
!!!source: Musikalischer Hausschatz der Deutschen. Eine Sammlung von über 1000 Liedern und Gesängen mit Singstimmen und Klavierbegleitung. Leipzig, Litterarisches Verlags-Haus.
!!!page: 452
!!!ENC: Anna Maria Matuszewska
!!!EEV: 2025/03/18
*-	*-
